icon-themes/sifr_svg/cmd/lc_square.svg

<svg viewBox="0 0 24 24" xmlns="http://www.w3.org/2000/svg"><g fill="#555753"><path d="m4 4v16h16v-16z" opacity=".35"/><path d="m2 2v20h20v-20zm2 2h16v16h-16z"/></g></svg>

<svg xmlns="http://www.w3.org/2000/svg" viewBox="0 0 24 24">
  <path
     style="opacity:0.35;fill:#555753"
     d="M 4,4 V 20 H 20 V 4 Z"
     />
  <path
     style="fill:#555753"
     d="M 2,2 V 22 H 22 V 2 Z M 4,4 H 20 V 20 H 4 Z"
     />
</svg>
